( LEGO Aluminum Milling - LEGO_2x4_SETUP1 )
( Generated: 2026-01-06 21:20 )
( Machine: Bantam Desktop CNC )
( Material: 6061-T6 )
( Stock: 16.0x32.0x10.600000000000001 mm )
( Setup 1: TOP )
( Workholding: soft_jaws )

( === SAFETY BLOCK === )
G21 ( Units: mm )
G90 ( Absolute positioning )
G17 ( XY plane selection )
G54 ( Work coordinate system )
G40 ( Cancel cutter compensation )
G49 ( Cancel tool length offset )
G80 ( Cancel canned cycles )

( === TOOL CHANGE === )
( Tool 1: 3mm Flat Endmill )
M5 ( Spindle stop )
G53 G0 Z0 ( Retract to machine Z home )
M6 T1 ( Tool change )

( Probe tool length - manual or with probe )
( Set tool length offset in Bantam software )

S9702 M3 ( Spindle on CW at 9702 RPM )
G4 P3 ( Dwell 3 sec for spindle to spin up )

( --- Face Top --- )
( Remove stock offset, establish Z0 at part top )
( === FACING OPERATION === )
( DOC: 1.0 mm, Stepover: 2.0 mm )
G0 X-1.0000 Y-1.0000
G0 Z5.0000
G1 Z9.6000 F203.8
G1 X17.0000 F679.2
G1 Y1.0000 F679.2
G1 X-1.0000 F679.2
G1 Y3.0000 F679.2
G1 X17.0000 F679.2
G1 Y5.0000 F679.2
G1 X-1.0000 F679.2
G1 Y7.0000 F679.2
G1 X17.0000 F679.2
G1 Y9.0000 F679.2
G1 X-1.0000 F679.2
G1 Y11.0000 F679.2
G1 X17.0000 F679.2
G1 Y13.0000 F679.2
G1 X-1.0000 F679.2
G1 Y15.0000 F679.2
G1 X17.0000 F679.2
G1 Y17.0000 F679.2
G1 X-1.0000 F679.2
G1 Y19.0000 F679.2
G1 X17.0000 F679.2
G1 Y21.0000 F679.2
G1 X-1.0000 F679.2
G1 Y23.0000 F679.2
G1 X17.0000 F679.2
G1 Y25.0000 F679.2
G1 X-1.0000 F679.2
G1 Y27.0000 F679.2
G1 X17.0000 F679.2
G1 Y29.0000 F679.2
G1 X-1.0000 F679.2
G1 Y31.0000 F679.2
G1 X17.0000 F679.2
G1 Y33.0000 F679.2
G1 X-1.0000 F679.2
G0 Z5.0000

( --- Rough Stud Area --- )
( Rough around studs, leave 0.2mm for finishing )
( === ADAPTIVE CLEARING === )
( Z Top: 0, Z Bottom: -1.7 )
( DOC: 0.5 mm, WOC: 1.2000000000000002 mm )
( Z Level 1: -0.500 )
G0 X1.5000 Y1.5000
G0 Z5.0000
G1 Z-0.5000 F203.8
G1 X14.5000 Y1.5000 F679.2
G1 X14.5000 Y30.5000 F679.2
G1 X1.5000 Y30.5000 F679.2
G1 X1.5000 Y1.5000 F679.2
( Z Level 2: -1.000 )
G0 X1.5000 Y1.5000
G0 Z5.0000
G1 Z-1.0000 F203.8
G1 X14.5000 Y1.5000 F679.2
G1 X14.5000 Y30.5000 F679.2
G1 X1.5000 Y30.5000 F679.2
G1 X1.5000 Y1.5000 F679.2
( Z Level 3: -1.500 )
G0 X1.5000 Y1.5000
G0 Z5.0000
G1 Z-1.5000 F203.8
G1 X14.5000 Y1.5000 F679.2
G1 X14.5000 Y30.5000 F679.2
G1 X1.5000 Y30.5000 F679.2
G1 X1.5000 Y1.5000 F679.2
( Z Level 4: -1.700 )
G0 X1.5000 Y1.5000
G0 Z5.0000
G1 Z-1.7000 F203.8
G1 X14.5000 Y1.5000 F679.2
G1 X14.5000 Y30.5000 F679.2
G1 X1.5000 Y30.5000 F679.2
G1 X1.5000 Y1.5000 F679.2
G0 Z5.0000

( === TOOL CHANGE === )
( Tool 2: 2mm Flat Endmill )
M5 ( Spindle stop )
G53 G0 Z0 ( Retract to machine Z home )
M6 T2 ( Tool change )

( Probe tool length - manual or with probe )
( Set tool length offset in Bantam software )

S10000 M3 ( Spindle on CW at 10000 RPM )
G4 P3 ( Dwell 3 sec for spindle to spin up )

( --- Finish Stud Profiles --- )
( Finish stud diameter to 4.8mm ±0.05 )
( === CONTOUR FINISHING === )
G0 X1.5000 Y1.5000
G0 Z1.8500
G1 Z-0.1500 F150.0
G1 X14.5000 Y1.5000 F350.0
G1 X14.5000 Y30.5000 F350.0
G1 X1.5000 Y30.5000 F350.0
G1 X1.5000 Y1.5000 F350.0
G0 X1.5000 Y1.5000
G0 Z1.7000
G1 Z-0.3000 F150.0
G1 X14.5000 Y1.5000 F350.0
G1 X14.5000 Y30.5000 F350.0
G1 X1.5000 Y30.5000 F350.0
G1 X1.5000 Y1.5000 F350.0
G0 X1.5000 Y1.5000
G0 Z1.5500
G1 Z-0.4500 F150.0
G1 X14.5000 Y1.5000 F350.0
G1 X14.5000 Y30.5000 F350.0
G1 X1.5000 Y30.5000 F350.0
G1 X1.5000 Y1.5000 F350.0
G0 X1.5000 Y1.5000
G0 Z1.4000
G1 Z-0.6000 F150.0
G1 X14.5000 Y1.5000 F350.0
G1 X14.5000 Y30.5000 F350.0
G1 X1.5000 Y30.5000 F350.0
G1 X1.5000 Y1.5000 F350.0
G0 X1.5000 Y1.5000
G0 Z1.2500
G1 Z-0.7500 F150.0
G1 X14.5000 Y1.5000 F350.0
G1 X14.5000 Y30.5000 F350.0
G1 X1.5000 Y30.5000 F350.0
G1 X1.5000 Y1.5000 F350.0
G0 X1.5000 Y1.5000
G0 Z1.1000
G1 Z-0.9000 F150.0
G1 X14.5000 Y1.5000 F350.0
G1 X14.5000 Y30.5000 F350.0
G1 X1.5000 Y30.5000 F350.0
G1 X1.5000 Y1.5000 F350.0
G0 X1.5000 Y1.5000
G0 Z0.9500
G1 Z-1.0500 F150.0
G1 X14.5000 Y1.5000 F350.0
G1 X14.5000 Y30.5000 F350.0
G1 X1.5000 Y30.5000 F350.0
G1 X1.5000 Y1.5000 F350.0
G0 X1.5000 Y1.5000
G0 Z0.8000
G1 Z-1.2000 F150.0
G1 X14.5000 Y1.5000 F350.0
G1 X14.5000 Y30.5000 F350.0
G1 X1.5000 Y30.5000 F350.0
G1 X1.5000 Y1.5000 F350.0
G0 X1.5000 Y1.5000
G0 Z0.6500
G1 Z-1.3500 F150.0
G1 X14.5000 Y1.5000 F350.0
G1 X14.5000 Y30.5000 F350.0
G1 X1.5000 Y30.5000 F350.0
G1 X1.5000 Y1.5000 F350.0
G0 X1.5000 Y1.5000
G0 Z0.5000
G1 Z-1.5000 F150.0
G1 X14.5000 Y1.5000 F350.0
G1 X14.5000 Y30.5000 F350.0
G1 X1.5000 Y30.5000 F350.0
G1 X1.5000 Y1.5000 F350.0
G0 X1.5000 Y1.5000
G0 Z0.3500
G1 Z-1.6500 F150.0
G1 X14.5000 Y1.5000 F350.0
G1 X14.5000 Y30.5000 F350.0
G1 X1.5000 Y30.5000 F350.0
G1 X1.5000 Y1.5000 F350.0
G0 X1.5000 Y1.5000
G0 Z0.2000
G1 Z-1.8000 F150.0
G1 X14.5000 Y1.5000 F350.0
G1 X14.5000 Y30.5000 F350.0
G1 X1.5000 Y30.5000 F350.0
G1 X1.5000 Y1.5000 F350.0
G0 X1.5000 Y1.5000
G0 Z0.0500
G1 Z-1.9500 F150.0
G1 X14.5000 Y1.5000 F350.0
G1 X14.5000 Y30.5000 F350.0
G1 X1.5000 Y30.5000 F350.0
G1 X1.5000 Y1.5000 F350.0
G0 X1.5000 Y1.5000
G0 Z-0.1000
G1 Z-2.1000 F150.0
G1 X14.5000 Y1.5000 F350.0
G1 X14.5000 Y30.5000 F350.0
G1 X1.5000 Y30.5000 F350.0
G1 X1.5000 Y1.5000 F350.0
G0 X1.5000 Y1.5000
G0 Z-0.2500
G1 Z-2.2500 F150.0
G1 X14.5000 Y1.5000 F350.0
G1 X14.5000 Y30.5000 F350.0
G1 X1.5000 Y30.5000 F350.0
G1 X1.5000 Y1.5000 F350.0
G0 X1.5000 Y1.5000
G0 Z-0.4000
G1 Z-2.4000 F150.0
G1 X14.5000 Y1.5000 F350.0
G1 X14.5000 Y30.5000 F350.0
G1 X1.5000 Y30.5000 F350.0
G1 X1.5000 Y1.5000 F350.0
G0 X1.5000 Y1.5000
G0 Z-0.5500
G1 Z-2.5500 F150.0
G1 X14.5000 Y1.5000 F350.0
G1 X14.5000 Y30.5000 F350.0
G1 X1.5000 Y30.5000 F350.0
G1 X1.5000 Y1.5000 F350.0
G0 X1.5000 Y1.5000
G0 Z-0.7000
G1 Z-2.7000 F150.0
G1 X14.5000 Y1.5000 F350.0
G1 X14.5000 Y30.5000 F350.0
G1 X1.5000 Y30.5000 F350.0
G1 X1.5000 Y1.5000 F350.0
G0 X1.5000 Y1.5000
G0 Z-0.8500
G1 Z-2.8500 F150.0
G1 X14.5000 Y1.5000 F350.0
G1 X14.5000 Y30.5000 F350.0
G1 X1.5000 Y30.5000 F350.0
G1 X1.5000 Y1.5000 F350.0
G0 X1.5000 Y1.5000
G0 Z-1.0000
G1 Z-3.0000 F150.0
G1 X14.5000 Y1.5000 F350.0
G1 X14.5000 Y30.5000 F350.0
G1 X1.5000 Y30.5000 F350.0
G1 X1.5000 Y1.5000 F350.0
G0 X1.5000 Y1.5000
G0 Z-1.1500
G1 Z-3.1500 F150.0
G1 X14.5000 Y1.5000 F350.0
G1 X14.5000 Y30.5000 F350.0
G1 X1.5000 Y30.5000 F350.0
G1 X1.5000 Y1.5000 F350.0
G0 X1.5000 Y1.5000
G0 Z-1.3000
G1 Z-3.3000 F150.0
G1 X14.5000 Y1.5000 F350.0
G1 X14.5000 Y30.5000 F350.0
G1 X1.5000 Y30.5000 F350.0
G1 X1.5000 Y1.5000 F350.0
G0 X1.5000 Y1.5000
G0 Z-1.4500
G1 Z-3.4500 F150.0
G1 X14.5000 Y1.5000 F350.0
G1 X14.5000 Y30.5000 F350.0
G1 X1.5000 Y30.5000 F350.0
G1 X1.5000 Y1.5000 F350.0
G0 X1.5000 Y1.5000
G0 Z-1.6000
G1 Z-3.6000 F150.0
G1 X14.5000 Y1.5000 F350.0
G1 X14.5000 Y30.5000 F350.0
G1 X1.5000 Y30.5000 F350.0
G1 X1.5000 Y1.5000 F350.0
G0 X1.5000 Y1.5000
G0 Z-1.7500
G1 Z-3.7500 F150.0
G1 X14.5000 Y1.5000 F350.0
G1 X14.5000 Y30.5000 F350.0
G1 X1.5000 Y30.5000 F350.0
G1 X1.5000 Y1.5000 F350.0
G0 X1.5000 Y1.5000
G0 Z-1.9000
G1 Z-3.9000 F150.0
G1 X14.5000 Y1.5000 F350.0
G1 X14.5000 Y30.5000 F350.0
G1 X1.5000 Y30.5000 F350.0
G1 X1.5000 Y1.5000 F350.0
G0 X1.5000 Y1.5000
G0 Z-2.0500
G1 Z-4.0500 F150.0
G1 X14.5000 Y1.5000 F350.0
G1 X14.5000 Y30.5000 F350.0
G1 X1.5000 Y30.5000 F350.0
G1 X1.5000 Y1.5000 F350.0
G0 X1.5000 Y1.5000
G0 Z-2.2000
G1 Z-4.2000 F150.0
G1 X14.5000 Y1.5000 F350.0
G1 X14.5000 Y30.5000 F350.0
G1 X1.5000 Y30.5000 F350.0
G1 X1.5000 Y1.5000 F350.0
G0 X1.5000 Y1.5000
G0 Z-2.3500
G1 Z-4.3500 F150.0
G1 X14.5000 Y1.5000 F350.0
G1 X14.5000 Y30.5000 F350.0
G1 X1.5000 Y30.5000 F350.0
G1 X1.5000 Y1.5000 F350.0
G0 X1.5000 Y1.5000
G0 Z-2.5000
G1 Z-4.5000 F150.0
G1 X14.5000 Y1.5000 F350.0
G1 X14.5000 Y30.5000 F350.0
G1 X1.5000 Y30.5000 F350.0
G1 X1.5000 Y1.5000 F350.0
G0 X1.5000 Y1.5000
G0 Z-2.6500
G1 Z-4.6500 F150.0
G1 X14.5000 Y1.5000 F350.0
G1 X14.5000 Y30.5000 F350.0
G1 X1.5000 Y30.5000 F350.0
G1 X1.5000 Y1.5000 F350.0
G0 X1.5000 Y1.5000
G0 Z-2.8000
G1 Z-4.8000 F150.0
G1 X14.5000 Y1.5000 F350.0
G1 X14.5000 Y30.5000 F350.0
G1 X1.5000 Y30.5000 F350.0
G1 X1.5000 Y1.5000 F350.0
G0 X1.5000 Y1.5000
G0 Z-2.9500
G1 Z-4.9500 F150.0
G1 X14.5000 Y1.5000 F350.0
G1 X14.5000 Y30.5000 F350.0
G1 X1.5000 Y30.5000 F350.0
G1 X1.5000 Y1.5000 F350.0
G0 X1.5000 Y1.5000
G0 Z-3.0000
G1 Z-5.0000 F150.0
G1 X14.5000 Y1.5000 F350.0
G1 X14.5000 Y30.5000 F350.0
G1 X1.5000 Y30.5000 F350.0
G1 X1.5000 Y1.5000 F350.0
G0 Z5.0000


( === PROGRAM END === )
M5 ( Spindle stop )
G53 G0 Z0 ( Retract to machine Z home )
G53 G0 X0 Y0 ( Return to machine XY home )
M30 ( Program end, rewind )
